X: 8
T: Put Me In The Big Chest
R: reel
M: 4/4
L: 1/8
K: Amaj
z | EFAB c2 cf | ecBA F2 AF | EFAB cBcf | ecBc A3 :|c | efec eAAc | efec BABc | efec efaf | ecBc A3 :|z | EFAB c2 cB | c2 cB ce f2 | EFAB cBcf | ecBc A3 :|c | efec eAAc | efec BABc | efec efaf | ecBc A/A/A A :|


Tune 3105	Setting 16218

